assets/career-new/Workplace 1.svg

<svg width="260" height="260" viewBox="0 0 260 260" fill="none" xmlns="http://www.w3.org/2000/svg">
<g clip-path="url(#clip0_566_281)">
<path d="M130 260C201.797 260 260 201.797 260 130C260 58.203 201.797 0 130 0C58.203 0 0 58.203 0 130C0 201.797 58.203 260 130 260Z" fill="url(#paint0_linear_566_281)"/>
<path fill-rule="evenodd" clip-rule="evenodd" d="M132.18 86.6205V105.015C132.18 112.358 135.491 118.933 140.699 123.327C132.394 124.408 124.941 128.215 119.266 133.819C117.99 135.079 117.977 137.139 119.238 138.415C120.499 139.691 122.558 139.704 123.834 138.444C129.423 132.923 137.102 129.513 145.57 129.513H177.047C194.123 129.513 207.987 143.377 207.987 160.453V210.048C207.987 211.842 209.443 213.298 211.237 213.298C213.031 213.298 214.487 211.842 214.487 210.048V160.453C214.487 141.44 200.284 125.719 181.918 123.327C187.126 118.933 190.437 112.358 190.437 105.015V86.6205C190.437 81.5732 188.872 76.8887 186.203 73.0264L186.193 73.0121L186.19 73.0069C181.864 66.7617 174.649 62.668 166.484 62.668H156.133C142.913 62.668 132.18 73.4008 132.18 86.6205ZM138.68 94.2502V105.015C138.68 114.648 146.501 122.468 156.133 122.468H166.484C176.116 122.468 183.937 114.648 183.937 105.015V86.6205C183.937 86.1167 183.915 85.6182 183.874 85.1261C181.448 88.7096 177.803 90.9235 174.134 92.2755C168.6 94.3145 163.064 94.2625 162.465 94.2502H138.68ZM180.236 75.8786C177.041 71.7953 172.067 69.168 166.484 69.168H156.133C146.501 69.168 138.68 76.9881 138.68 86.6205V87.7502H162.5C162.533 87.7502 162.567 87.7508 162.6 87.7515C162.6 87.7515 167.243 87.8873 171.886 86.1765C175.826 84.7251 179.827 81.8274 180.236 75.8786Z" fill="url(#paint1_linear_566_281)"/>
<path fill-rule="evenodd" clip-rule="evenodd" d="M3.25 214.5H211.25C213.044 214.5 214.5 213.044 214.5 211.25C214.5 209.456 213.044 208 211.25 208H3.25C1.456 208 0 209.456 0 211.25C0 213.044 1.456 214.5 3.25 214.5Z" fill="url(#paint2_linear_566_281)"/>
<path fill-rule="evenodd" clip-rule="evenodd" d="M67.1586 208H3.25C1.456 208 0 209.456 0 211.25C0 213.044 1.456 214.5 3.25 214.5H67.1586C68.952 214.5 70.4086 213.044 70.4086 211.25C70.4086 209.456 68.952 208 67.1586 208Z" fill="white"/>
<path d="M133.488 136.5H50.375L61.5122 212.999H147.62L133.488 136.5Z" fill="url(#paint3_linear_566_281)"/>
<path fill-rule="evenodd" clip-rule="evenodd" d="M105.027 172.945C103.901 176.121 100.408 177.787 97.2311 176.66C94.0546 175.534 92.3899 172.041 93.5157 168.865C94.6415 165.688 98.1346 164.024 101.311 165.149C103.064 165.771 104.992 164.852 105.614 163.099C106.235 161.346 105.316 159.418 103.563 158.796C96.8801 156.428 89.5312 159.931 87.1626 166.613C84.7934 173.296 88.2962 180.645 94.9789 183.013C101.662 185.383 109.011 181.88 111.38 175.197C112.001 173.444 111.082 171.516 109.329 170.895C107.576 170.273 105.648 171.192 105.027 172.945Z" fill="url(#paint4_linear_566_281)"/>
<path fill-rule="evenodd" clip-rule="evenodd" d="M55.1778 133.25C52.2996 133.25 49.5689 134.521 47.7164 136.724C45.8639 138.926 45.0787 141.835 45.5721 144.671C48.2013 159.788 54.0221 193.259 56.3042 206.38C57.1213 211.077 61.215 214.494 65.9827 214.459C81.1726 214.346 123.686 214.029 141.193 213.899C144.061 213.878 146.774 212.595 148.61 210.392C150.446 208.189 151.219 205.289 150.723 202.465C148.093 187.47 142.275 154.313 139.994 141.315C139.176 136.651 135.126 133.25 130.391 133.25H55.1778ZM55.1778 139.75H130.391C131.969 139.75 133.319 140.884 133.592 142.438C135.873 155.436 141.691 188.594 144.321 203.588C144.486 204.529 144.229 205.496 143.617 206.23C143.004 206.965 142.1 207.392 141.144 207.399L65.934 207.959C64.3447 207.971 62.9804 206.832 62.708 205.266L51.9759 143.557C51.8114 142.612 52.0734 141.642 52.6909 140.908C53.3084 140.174 54.2184 139.75 55.1778 139.75Z" fill="url(#paint5_linear_566_281)"/>
<path fill-rule="evenodd" clip-rule="evenodd" d="M187.2 150.689H165.1C163.306 150.689 161.85 152.146 161.85 153.939C161.85 155.733 163.306 157.189 165.1 157.189H187.2C188.994 157.189 190.45 155.733 190.45 153.939C190.45 152.146 188.994 150.689 187.2 150.689Z" fill="white"/>
</g>
<defs>
<linearGradient id="paint0_linear_566_281" x1="45.6958" y1="31.0708" x2="227.707" y2="215.716" gradientUnits="userSpaceOnUse">
<stop stop-color="#FF0CF5"/>
<stop offset="1" stop-color="#0575E6"/>
</linearGradient>
<linearGradient id="paint1_linear_566_281" x1="217.1" y1="215.716" x2="133.25" y2="62.668" gradientUnits="userSpaceOnUse">
<stop stop-color="#3AA0FE"/>
<stop offset="1" stop-color="#59FEF4"/>
</linearGradient>
<linearGradient id="paint2_linear_566_281" x1="0" y1="211.25" x2="203.45" y2="211.25" gradientUnits="userSpaceOnUse">
<stop stop-color="#3AA0FE"/>
<stop offset="1" stop-color="#59FEF4"/>
</linearGradient>
<linearGradient id="paint3_linear_566_281" x1="-104.613" y1="145.843" x2="-104.613" y2="210.691" gradientUnits="userSpaceOnUse">
<stop stop-color="#36FF78" stop-opacity="0.8"/>
<stop offset="1" stop-color="#0CFFFF" stop-opacity="0.15"/>
</linearGradient>
<linearGradient id="paint4_linear_566_281" x1="95.3695" y1="162.271" x2="106.197" y2="177.375" gradientUnits="userSpaceOnUse">
<stop stop-color="#FF0CF5"/>
<stop offset="1" stop-color="#0575E6"/>
</linearGradient>
<linearGradient id="paint5_linear_566_281" x1="45.4999" y1="135.2" x2="142.35" y2="209.95" gradientUnits="userSpaceOnUse">
<stop stop-color="#36FF78"/>
<stop offset="1" stop-color="#0CFFFF"/>
</linearGradient>
<clipPath id="clip0_566_281">
<rect width="260" height="260" fill="white"/>
</clipPath>
</defs>
</svg>

<svg xmlns="http://www.w3.org/2000/svg" xmlns:xlink="http://www.w3.org/1999/xlink" width="260" height="260" fill="none" xmlns:v="https://vecta.io/nano"><g clip-path="url(#G)"><path d="M130 260c71.797 0 130-58.203 130-130S201.797 0 130 0 0 58.203 0 130s58.203 130 130 130z" fill="url(#A)"/><g fill-rule="evenodd"><path d="M132.18 86.621v18.394c0 7.343 3.311 13.918 8.519 18.312-8.305 1.081-15.758 4.888-21.433 10.492a3.25 3.25 0 0 0-.028 4.596c1.261 1.276 3.32 1.289 4.596.029 5.589-5.521 13.268-8.931 21.736-8.931h31.477c17.076 0 30.94 13.864 30.94 30.94v49.595a3.25 3.25 0 1 0 6.5 0v-49.595c0-19.013-14.203-34.734-32.569-37.126 5.208-4.394 8.519-10.969 8.519-18.312V86.621c0-5.047-1.565-9.732-4.234-13.594l-.01-.014-.003-.005c-4.326-6.245-11.541-10.339-19.706-10.339h-10.351c-13.22 0-23.953 10.733-23.953 23.953zm6.5 7.63v10.765c0 9.633 7.821 17.453 17.453 17.453h10.351c9.632 0 17.453-7.82 17.453-17.453V86.621c0-.504-.022-1.002-.063-1.494-2.426 3.584-6.071 5.797-9.74 7.149-5.534 2.039-11.07 1.987-11.669 1.975H138.68zm41.556-18.372c-3.195-4.083-8.169-6.711-13.752-6.711h-10.351c-9.632 0-17.453 7.82-17.453 17.453v1.13h23.82l.1.001s4.643.136 9.286-1.575c3.94-1.451 7.941-4.349 8.35-10.298z" fill="url(#B)"/><path d="M3.25 214.5h208a3.25 3.25 0 1 0 0-6.5h-208a3.25 3.25 0 1 0 0 6.5z" fill="url(#C)"/><path d="M67.159 208H3.25a3.25 3.25 0 1 0 0 6.5h63.909c1.793 0 3.25-1.456 3.25-3.25s-1.457-3.25-3.25-3.25z" fill="#fff"/></g><path d="M133.488 136.5H50.375l11.137 76.499h86.108L133.488 136.5z" fill="url(#D)"/><g fill-rule="evenodd"><path d="M105.027 172.945a6.11 6.11 0 0 1-7.796 3.715 6.11 6.11 0 0 1-3.715-7.795 6.11 6.11 0 0 1 7.795-3.716c1.753.622 3.681-.297 4.303-2.05s-.298-3.681-2.051-4.303c-6.683-2.368-14.032 1.135-16.4 7.817s1.134 14.032 7.816 16.4 14.032-1.133 16.401-7.816c.621-1.753-.298-3.681-2.051-4.302a3.37 3.37 0 0 0-4.302 2.05z" fill="url(#E)"/><path d="M55.178 133.25a9.75 9.75 0 0 0-9.606 11.421l10.732 61.709a9.75 9.75 0 0 0 9.678 8.079l75.21-.56a9.75 9.75 0 0 0 9.53-11.434l-10.729-61.15a9.75 9.75 0 0 0-9.603-8.065H55.178zm0 6.5h75.213a3.25 3.25 0 0 1 3.201 2.688l10.729 61.15a3.25 3.25 0 0 1-3.177 3.811l-75.21.56a3.25 3.25 0 0 1-3.226-2.693l-10.732-61.709a3.25 3.25 0 0 1 3.202-3.807z" fill="url(#F)"/><path d="M187.2 150.689h-22.1c-1.794 0-3.25 1.457-3.25 3.25a3.25 3.25 0 0 0 3.25 3.25h22.1a3.25 3.25 0 0 0 3.25-3.25c0-1.793-1.456-3.25-3.25-3.25z" fill="#fff"/></g></g><defs><linearGradient id="A" x1="45.696" y1="31.071" x2="227.707" y2="215.716" xlink:href="#H"><stop stop-color="#ff0cf5"/><stop offset="1" stop-color="#0575e6"/></linearGradient><linearGradient id="B" x1="217.1" y1="215.716" x2="133.25" y2="62.668" xlink:href="#H"><stop stop-color="#3aa0fe"/><stop offset="1" stop-color="#59fef4"/></linearGradient><linearGradient id="C" x1="0" y1="211.25" x2="203.45" y2="211.25" xlink:href="#H"><stop stop-color="#3aa0fe"/><stop offset="1" stop-color="#59fef4"/></linearGradient><linearGradient id="D" x1="-104.613" y1="145.843" x2="-104.613" y2="210.691" xlink:href="#H"><stop stop-color="#36ff78" stop-opacity=".8"/><stop offset="1" stop-color="#0cffff" stop-opacity=".15"/></linearGradient><linearGradient id="E" x1="95.37" y1="162.271" x2="106.197" y2="177.375" xlink:href="#H"><stop stop-color="#ff0cf5"/><stop offset="1" stop-color="#0575e6"/></linearGradient><linearGradient id="F" x1="45.5" y1="135.2" x2="142.35" y2="209.95" xlink:href="#H"><stop stop-color="#36ff78"/><stop offset="1" stop-color="#0cffff"/></linearGradient><clipPath id="G"><path fill="#fff" d="M0 0h260v260H0z"/></clipPath><linearGradient id="H" gradientUnits="userSpaceOnUse"/></defs></svg>
